(Generated with: DXF2GCODE, Version: Py2.7.12+ PyQt4.11.4, Date: $Date: Sun Apr 17 16:32:22 2016 +0200 $)
(Created from file: /home/nico/Projects/Electronics/LimitSwitchesPlugin/CAM/base_board.dxf)
(Time: Thu Jun 15 21:38:44 2017)
(G21 Units in millimeters)  (G90 Absolute programming) 
G21 (Units in millimeters)
G90 (Absolute programming)
G64 (Default cutting)
G17 (XY plane)
G40 (Cancel radius comp.)
G49 (Cancel length comp.)

G0 Z   7.000 

(*** LAYER: Edge ***)
T1 M6
S1000

(* SHAPE Nr: 30 *)
G0 X   8.939 Y  68.939
M3 M8
G0 Z   3.000 
F200
G1 Z  -1.000
G2 X  11.061 Y  71.061 I   1.061 J   1.061
G2 X   8.939 Y  68.939 I  -1.061 J  -1.061
G1 Z  -2.000
G2 X  11.061 Y  71.061 I   1.061 J   1.061
G2 X   8.939 Y  68.939 I  -1.061 J  -1.061
G1 Z  -3.000
G2 X  11.061 Y  71.061 I   1.061 J   1.061
G2 X   8.939 Y  68.939 I  -1.061 J  -1.061
G1 Z  -4.000
G2 X  11.061 Y  71.061 I   1.061 J   1.061
G2 X   8.939 Y  68.939 I  -1.061 J  -1.061
G1 Z  -5.000
G2 X  11.061 Y  71.061 I   1.061 J   1.061
G2 X   8.939 Y  68.939 I  -1.061 J  -1.061
G1 Z  -6.000
G2 X  11.061 Y  71.061 I   1.061 J   1.061
G2 X   8.939 Y  68.939 I  -1.061 J  -1.061
G1 Z   3.000
G0 Z   7.000 
M9 M5

(* SHAPE Nr: 31 *)
G0 X 138.939 Y  68.939
M3 M8
G0 Z   3.000 
G1 Z  -1.000
G2 X 141.061 Y  71.061 I   1.061 J   1.061
G2 X 138.939 Y  68.939 I  -1.061 J  -1.061
G1 Z  -2.000
G2 X 141.061 Y  71.061 I   1.061 J   1.061
G2 X 138.939 Y  68.939 I  -1.061 J  -1.061
G1 Z  -3.000
G2 X 141.061 Y  71.061 I   1.061 J   1.061
G2 X 138.939 Y  68.939 I  -1.061 J  -1.061
G1 Z  -4.000
G2 X 141.061 Y  71.061 I   1.061 J   1.061
G2 X 138.939 Y  68.939 I  -1.061 J  -1.061
G1 Z  -5.000
G2 X 141.061 Y  71.061 I   1.061 J   1.061
G2 X 138.939 Y  68.939 I  -1.061 J  -1.061
G1 Z  -6.000
G2 X 141.061 Y  71.061 I   1.061 J   1.061
G2 X 138.939 Y  68.939 I  -1.061 J  -1.061
G1 Z   3.000
G0 Z   7.000 
M9 M5

(* SHAPE Nr: 32 *)
G0 X 138.939 Y  28.939
M3 M8
G0 Z   3.000 
G1 Z  -1.000
G2 X 141.061 Y  31.061 I   1.061 J   1.061
G2 X 138.939 Y  28.939 I  -1.061 J  -1.061
G1 Z  -2.000
G2 X 141.061 Y  31.061 I   1.061 J   1.061
G2 X 138.939 Y  28.939 I  -1.061 J  -1.061
G1 Z  -3.000
G2 X 141.061 Y  31.061 I   1.061 J   1.061
G2 X 138.939 Y  28.939 I  -1.061 J  -1.061
G1 Z  -4.000
G2 X 141.061 Y  31.061 I   1.061 J   1.061
G2 X 138.939 Y  28.939 I  -1.061 J  -1.061
G1 Z  -5.000
G2 X 141.061 Y  31.061 I   1.061 J   1.061
G2 X 138.939 Y  28.939 I  -1.061 J  -1.061
G1 Z  -6.000
G2 X 141.061 Y  31.061 I   1.061 J   1.061
G2 X 138.939 Y  28.939 I  -1.061 J  -1.061
G1 Z   3.000
G0 Z   7.000 
M9 M5

(* SHAPE Nr: 33 *)
G0 X   8.939 Y  28.939
M3 M8
G0 Z   3.000 
G1 Z  -1.000
G2 X  11.061 Y  31.061 I   1.061 J   1.061
G2 X   8.939 Y  28.939 I  -1.061 J  -1.061
G1 Z  -2.000
G2 X  11.061 Y  31.061 I   1.061 J   1.061
G2 X   8.939 Y  28.939 I  -1.061 J  -1.061
G1 Z  -3.000
G2 X  11.061 Y  31.061 I   1.061 J   1.061
G2 X   8.939 Y  28.939 I  -1.061 J  -1.061
G1 Z  -4.000
G2 X  11.061 Y  31.061 I   1.061 J   1.061
G2 X   8.939 Y  28.939 I  -1.061 J  -1.061
G1 Z  -5.000
G2 X  11.061 Y  31.061 I   1.061 J   1.061
G2 X   8.939 Y  28.939 I  -1.061 J  -1.061
G1 Z  -6.000
G2 X  11.061 Y  31.061 I   1.061 J   1.061
G2 X   8.939 Y  28.939 I  -1.061 J  -1.061
G1 Z   3.000
G0 Z   7.000 
M9 M5

(* SHAPE Nr: 34 *)
G0 X  48.939 Y   8.939
M3 M8
G0 Z   3.000 
G1 Z  -1.000
G2 X  51.061 Y  11.061 I   1.061 J   1.061
G2 X  48.939 Y   8.939 I  -1.061 J  -1.061
G1 Z  -2.000
G2 X  51.061 Y  11.061 I   1.061 J   1.061
G2 X  48.939 Y   8.939 I  -1.061 J  -1.061
G1 Z  -3.000
G2 X  51.061 Y  11.061 I   1.061 J   1.061
G2 X  48.939 Y   8.939 I  -1.061 J  -1.061
G1 Z  -4.000
G2 X  51.061 Y  11.061 I   1.061 J   1.061
G2 X  48.939 Y   8.939 I  -1.061 J  -1.061
G1 Z  -5.000
G2 X  51.061 Y  11.061 I   1.061 J   1.061
G2 X  48.939 Y   8.939 I  -1.061 J  -1.061
G1 Z  -6.000
G2 X  51.061 Y  11.061 I   1.061 J   1.061
G2 X  48.939 Y   8.939 I  -1.061 J  -1.061
G1 Z   3.000
G0 Z   7.000 
M9 M5

(* SHAPE Nr: 35 *)
G0 X  98.939 Y   8.939
M3 M8
G0 Z   3.000 
G1 Z  -1.000
G2 X 101.061 Y  11.061 I   1.061 J   1.061
G2 X  98.939 Y   8.939 I  -1.061 J  -1.061
G1 Z  -2.000
G2 X 101.061 Y  11.061 I   1.061 J   1.061
G2 X  98.939 Y   8.939 I  -1.061 J  -1.061
G1 Z  -3.000
G2 X 101.061 Y  11.061 I   1.061 J   1.061
G2 X  98.939 Y   8.939 I  -1.061 J  -1.061
G1 Z  -4.000
G2 X 101.061 Y  11.061 I   1.061 J   1.061
G2 X  98.939 Y   8.939 I  -1.061 J  -1.061
G1 Z  -5.000
G2 X 101.061 Y  11.061 I   1.061 J   1.061
G2 X  98.939 Y   8.939 I  -1.061 J  -1.061
G1 Z  -6.000
G2 X 101.061 Y  11.061 I   1.061 J   1.061
G2 X  98.939 Y   8.939 I  -1.061 J  -1.061
G1 Z   3.000
G0 Z   7.000 
M9 M5

(* SHAPE Nr: 36 *)
G0 X  98.939 Y  88.939
M3 M8
G0 Z   3.000 
G1 Z  -1.000
G2 X 101.061 Y  91.061 I   1.061 J   1.061
G2 X  98.939 Y  88.939 I  -1.061 J  -1.061
G1 Z  -2.000
G2 X 101.061 Y  91.061 I   1.061 J   1.061
G2 X  98.939 Y  88.939 I  -1.061 J  -1.061
G1 Z  -3.000
G2 X 101.061 Y  91.061 I   1.061 J   1.061
G2 X  98.939 Y  88.939 I  -1.061 J  -1.061
G1 Z  -4.000
G2 X 101.061 Y  91.061 I   1.061 J   1.061
G2 X  98.939 Y  88.939 I  -1.061 J  -1.061
G1 Z  -5.000
G2 X 101.061 Y  91.061 I   1.061 J   1.061
G2 X  98.939 Y  88.939 I  -1.061 J  -1.061
G1 Z  -6.000
G2 X 101.061 Y  91.061 I   1.061 J   1.061
G2 X  98.939 Y  88.939 I  -1.061 J  -1.061
G1 Z   3.000
G0 Z   7.000 
M9 M5

(* SHAPE Nr: 37 *)
G0 X  48.939 Y  88.939
M3 M8
G0 Z   3.000 
G1 Z  -1.000
G2 X  51.061 Y  91.061 I   1.061 J   1.061
G2 X  48.939 Y  88.939 I  -1.061 J  -1.061
G1 Z  -2.000
G2 X  51.061 Y  91.061 I   1.061 J   1.061
G2 X  48.939 Y  88.939 I  -1.061 J  -1.061
G1 Z  -3.000
G2 X  51.061 Y  91.061 I   1.061 J   1.061
G2 X  48.939 Y  88.939 I  -1.061 J  -1.061
G1 Z  -4.000
G2 X  51.061 Y  91.061 I   1.061 J   1.061
G2 X  48.939 Y  88.939 I  -1.061 J  -1.061
G1 Z  -5.000
G2 X  51.061 Y  91.061 I   1.061 J   1.061
G2 X  48.939 Y  88.939 I  -1.061 J  -1.061
G1 Z  -6.000
G2 X  51.061 Y  91.061 I   1.061 J   1.061
G2 X  48.939 Y  88.939 I  -1.061 J  -1.061
G1 Z   3.000
G0 Z   7.000 
M9 M5

(* SHAPE Nr: 38 *)
G0 X  48.939 Y  48.939
M3 M8
G0 Z   3.000 
G1 Z  -1.000
G2 X  51.061 Y  51.061 I   1.061 J   1.061
G2 X  48.939 Y  48.939 I  -1.061 J  -1.061
G1 Z  -2.000
G2 X  51.061 Y  51.061 I   1.061 J   1.061
G2 X  48.939 Y  48.939 I  -1.061 J  -1.061
G1 Z  -3.000
G2 X  51.061 Y  51.061 I   1.061 J   1.061
G2 X  48.939 Y  48.939 I  -1.061 J  -1.061
G1 Z  -4.000
G2 X  51.061 Y  51.061 I   1.061 J   1.061
G2 X  48.939 Y  48.939 I  -1.061 J  -1.061
G1 Z  -5.000
G2 X  51.061 Y  51.061 I   1.061 J   1.061
G2 X  48.939 Y  48.939 I  -1.061 J  -1.061
G1 Z  -6.000
G2 X  51.061 Y  51.061 I   1.061 J   1.061
G2 X  48.939 Y  48.939 I  -1.061 J  -1.061
G1 Z   3.000
G0 Z   7.000 
M9 M5

(* SHAPE Nr: 39 *)
G0 X  98.939 Y  48.939
M3 M8
G0 Z   3.000 
G1 Z  -1.000
G2 X 101.061 Y  51.061 I   1.061 J   1.061
G2 X  98.939 Y  48.939 I  -1.061 J  -1.061
G1 Z  -2.000
G2 X 101.061 Y  51.061 I   1.061 J   1.061
G2 X  98.939 Y  48.939 I  -1.061 J  -1.061
G1 Z  -3.000
G2 X 101.061 Y  51.061 I   1.061 J   1.061
G2 X  98.939 Y  48.939 I  -1.061 J  -1.061
G1 Z  -4.000
G2 X 101.061 Y  51.061 I   1.061 J   1.061
G2 X  98.939 Y  48.939 I  -1.061 J  -1.061
G1 Z  -5.000
G2 X 101.061 Y  51.061 I   1.061 J   1.061
G2 X  98.939 Y  48.939 I  -1.061 J  -1.061
G1 Z  -6.000
G2 X 101.061 Y  51.061 I   1.061 J   1.061
G2 X  98.939 Y  48.939 I  -1.061 J  -1.061
G1 Z   3.000
G0 Z   7.000 
M9 M5

(* SHAPE Nr: 40 *)
G0 X   5.000 Y   4.000
M3 M8
G0 Z   3.000 
G1 Z  -1.000
G1 X   5.000 Y  95.000
G1 X 145.000 Y  95.000
G1 X 145.000 Y   4.000
G1 X   5.000 Y   4.000
G1 Z  -2.000
G1 X   5.000 Y  95.000
G1 X 145.000 Y  95.000
G1 X 145.000 Y   4.000
G1 X   5.000 Y   4.000
G1 Z  -3.000
G1 X   5.000 Y  95.000
G1 X 145.000 Y  95.000
G1 X 145.000 Y   4.000
G1 X   5.000 Y   4.000
G1 Z  -4.000
G1 X   5.000 Y  95.000
G1 X 145.000 Y  95.000
G1 X 145.000 Y   4.000
G1 X   5.000 Y   4.000
G1 Z  -5.000
G1 X   5.000 Y  95.000
G1 X 145.000 Y  95.000
G1 X 145.000 Y   4.000
G1 X   5.000 Y   4.000
G1 Z  -6.000
G1 X   5.000 Y  95.000
G1 X 145.000 Y  95.000
G1 X 145.000 Y   4.000
G1 X   5.000 Y   4.000
G1 Z   3.000
G0 Z   7.000 
M9 M5

(*** LAYER: Holes ***)

(* SHAPE Nr: 0 *)
G0 X  10.000 Y  90.000
M3 M8
G0 Z   3.000 
G1 Z  -6.000
F50
(Drilled hole)
F200
G1 Z   3.000
G0 Z   7.000 
M9 M5

(* SHAPE Nr: 1 *)
G0 X  10.000 Y  50.000
M3 M8
G0 Z   3.000 
G1 Z  -6.000
F50
(Drilled hole)
F200
G1 Z   3.000
G0 Z   7.000 
M9 M5

(* SHAPE Nr: 2 *)
G0 X  30.000 Y  30.000
M3 M8
G0 Z   3.000 
G1 Z  -6.000
F50
(Drilled hole)
F200
G1 Z   3.000
G0 Z   7.000 
M9 M5

(* SHAPE Nr: 3 *)
G0 X  30.000 Y  50.000
M3 M8
G0 Z   3.000 
G1 Z  -6.000
F50
(Drilled hole)
F200
G1 Z   3.000
G0 Z   7.000 
M9 M5

(* SHAPE Nr: 4 *)
G0 X  30.000 Y  70.000
M3 M8
G0 Z   3.000 
G1 Z  -6.000
F50
(Drilled hole)
F200
G1 Z   3.000
G0 Z   7.000 
M9 M5

(* SHAPE Nr: 5 *)
G0 X  30.000 Y  90.000
M3 M8
G0 Z   3.000 
G1 Z  -6.000
F50
(Drilled hole)
F200
G1 Z   3.000
G0 Z   7.000 
M9 M5

(* SHAPE Nr: 6 *)
G0 X  50.000 Y  70.000
M3 M8
G0 Z   3.000 
G1 Z  -6.000
F50
(Drilled hole)
F200
G1 Z   3.000
G0 Z   7.000 
M9 M5

(* SHAPE Nr: 7 *)
G0 X  50.000 Y  30.000
M3 M8
G0 Z   3.000 
G1 Z  -6.000
F50
(Drilled hole)
F200
G1 Z   3.000
G0 Z   7.000 
M9 M5

(* SHAPE Nr: 8 *)
G0 X  70.000 Y  30.000
M3 M8
G0 Z   3.000 
G1 Z  -6.000
F50
(Drilled hole)
F200
G1 Z   3.000
G0 Z   7.000 
M9 M5

(* SHAPE Nr: 9 *)
G0 X  70.000 Y  50.000
M3 M8
G0 Z   3.000 
G1 Z  -6.000
F50
(Drilled hole)
F200
G1 Z   3.000
G0 Z   7.000 
M9 M5

(* SHAPE Nr: 10 *)
G0 X  70.000 Y  70.000
M3 M8
G0 Z   3.000 
G1 Z  -6.000
F50
(Drilled hole)
F200
G1 Z   3.000
G0 Z   7.000 
M9 M5

(* SHAPE Nr: 11 *)
G0 X  70.000 Y  90.000
M3 M8
G0 Z   3.000 
G1 Z  -6.000
F50
(Drilled hole)
F200
G1 Z   3.000
G0 Z   7.000 
M9 M5

(* SHAPE Nr: 12 *)
G0 X  80.000 Y  90.000
M3 M8
G0 Z   3.000 
G1 Z  -6.000
F50
(Drilled hole)
F200
G1 Z   3.000
G0 Z   7.000 
M9 M5

(* SHAPE Nr: 13 *)
G0 X 120.000 Y  90.000
M3 M8
G0 Z   3.000 
G1 Z  -6.000
F50
(Drilled hole)
F200
G1 Z   3.000
G0 Z   7.000 
M9 M5

(* SHAPE Nr: 14 *)
G0 X 140.000 Y  90.000
M3 M8
G0 Z   3.000 
G1 Z  -6.000
F50
(Drilled hole)
F200
G1 Z   3.000
G0 Z   7.000 
M9 M5

(* SHAPE Nr: 15 *)
G0 X 120.000 Y  70.000
M3 M8
G0 Z   3.000 
G1 Z  -6.000
F50
(Drilled hole)
F200
G1 Z   3.000
G0 Z   7.000 
M9 M5

(* SHAPE Nr: 16 *)
G0 X 100.000 Y  70.000
M3 M8
G0 Z   3.000 
G1 Z  -6.000
F50
(Drilled hole)
F200
G1 Z   3.000
G0 Z   7.000 
M9 M5

(* SHAPE Nr: 17 *)
G0 X  80.000 Y  70.000
M3 M8
G0 Z   3.000 
G1 Z  -6.000
F50
(Drilled hole)
F200
G1 Z   3.000
G0 Z   7.000 
M9 M5

(* SHAPE Nr: 18 *)
G0 X  80.000 Y  50.000
M3 M8
G0 Z   3.000 
G1 Z  -6.000
F50
(Drilled hole)
F200
G1 Z   3.000
G0 Z   7.000 
M9 M5

(* SHAPE Nr: 19 *)
G0 X 120.000 Y  50.000
M3 M8
G0 Z   3.000 
G1 Z  -6.000
F50
(Drilled hole)
F200
G1 Z   3.000
G0 Z   7.000 
M9 M5

(* SHAPE Nr: 20 *)
G0 X 140.000 Y  50.000
M3 M8
G0 Z   3.000 
G1 Z  -6.000
F50
(Drilled hole)
F200
G1 Z   3.000
G0 Z   7.000 
M9 M5

(* SHAPE Nr: 21 *)
G0 X 120.000 Y  30.000
M3 M8
G0 Z   3.000 
G1 Z  -6.000
F50
(Drilled hole)
F200
G1 Z   3.000
G0 Z   7.000 
M9 M5

(* SHAPE Nr: 22 *)
G0 X 100.000 Y  30.000
M3 M8
G0 Z   3.000 
G1 Z  -6.000
F50
(Drilled hole)
F200
G1 Z   3.000
G0 Z   7.000 
M9 M5

(* SHAPE Nr: 23 *)
G0 X  80.000 Y  30.000
M3 M8
G0 Z   3.000 
G1 Z  -6.000
F50
(Drilled hole)
F200
G1 Z   3.000
G0 Z   7.000 
M9 M5

(* SHAPE Nr: 24 *)
G0 X  10.000 Y  10.000
M3 M8
G0 Z   3.000 
G1 Z  -6.000
F50
(Drilled hole)
F200
G1 Z   3.000
G0 Z   7.000 
M9 M5

(* SHAPE Nr: 25 *)
G0 X  30.000 Y  10.000
M3 M8
G0 Z   3.000 
G1 Z  -6.000
F50
(Drilled hole)
F200
G1 Z   3.000
G0 Z   7.000 
M9 M5

(* SHAPE Nr: 26 *)
G0 X  70.000 Y  10.000
M3 M8
G0 Z   3.000 
G1 Z  -6.000
F50
(Drilled hole)
F200
G1 Z   3.000
G0 Z   7.000 
M9 M5

(* SHAPE Nr: 27 *)
G0 X  80.000 Y  10.000
M3 M8
G0 Z   3.000 
G1 Z  -6.000
F50
(Drilled hole)
F200
G1 Z   3.000
G0 Z   7.000 
M9 M5

(* SHAPE Nr: 28 *)
G0 X 120.000 Y  10.000
M3 M8
G0 Z   3.000 
G1 Z  -6.000
F50
(Drilled hole)
F200
G1 Z   3.000
G0 Z   7.000 
M9 M5

(* SHAPE Nr: 29 *)
G0 X 140.000 Y  10.000
M3 M8
G0 Z   3.000 
G1 Z  -6.000
F50
(Drilled hole)
F200
G1 Z   3.000
G0 Z   7.000 
M9 M5
G0 X   0.000 Y   0.000
M2 (Program end)