(Generated with: DXF2GCODE, Version: Py2.7.12+ PyQt4.11.4, Date: $Date: Sun Apr 17 16:32:22 2016 +0200 $)
(Created from file: /home/nico/Projects/Electronics/LimitSwitchesPlugin/CAM/holding_holes.dxf)
(Time: Sun Jul  9 21:00:04 2017)
(G21 Units in millimeters)  (G90 Absolute programming) 
G21 (Units in millimeters)
G90 (Absolute programming)
G64 (Default cutting)
G17 (XY plane)
G40 (Cancel radius comp.)
G49 (Cancel length comp.)

G0 Z   7.000 

(*** LAYER: Edge ***)
T1 M6
S1000

(* SHAPE Nr: 44 *)
G0 X   5.000 Y   4.000
M3 M8
G0 Z   3.000 
F200
G1 Z  -0.500
G1 X   5.000 Y  95.000
G1 X 145.000 Y  95.000
G1 X 145.000 Y   4.000
G1 X   5.000 Y   4.000
G1 Z  -1.000
G1 X   5.000 Y  95.000
G1 X 145.000 Y  95.000
G1 X 145.000 Y   4.000
G1 X   5.000 Y   4.000
G1 Z   3.000
G0 Z   7.000 
M9 M5

(*** LAYER: FixingHoles ***)
T2 M6
S1000

(* SHAPE Nr: 30 *)
G0 X   8.586 Y  68.586
M3 M8
G0 Z   3.000 
G1 Z  -0.500
G2 X  11.414 Y  71.414 I   1.414 J   1.414
G2 X   8.586 Y  68.586 I  -1.414 J  -1.414
G1 Z  -1.000
G2 X  11.414 Y  71.414 I   1.414 J   1.414
G2 X   8.586 Y  68.586 I  -1.414 J  -1.414
G1 Z  -1.500
G2 X  11.414 Y  71.414 I   1.414 J   1.414
G2 X   8.586 Y  68.586 I  -1.414 J  -1.414
G1 Z  -2.000
G2 X  11.414 Y  71.414 I   1.414 J   1.414
G2 X   8.586 Y  68.586 I  -1.414 J  -1.414
G1 Z  -2.500
G2 X  11.414 Y  71.414 I   1.414 J   1.414
G2 X   8.586 Y  68.586 I  -1.414 J  -1.414
G1 Z  -3.000
G2 X  11.414 Y  71.414 I   1.414 J   1.414
G2 X   8.586 Y  68.586 I  -1.414 J  -1.414
G1 Z  -3.500
G2 X  11.414 Y  71.414 I   1.414 J   1.414
G2 X   8.586 Y  68.586 I  -1.414 J  -1.414
G1 Z   3.000
G0 Z   7.000 
M9 M5

(* SHAPE Nr: 31 *)
G0 X 138.586 Y  68.586
M3 M8
G0 Z   3.000 
G1 Z  -0.500
G2 X 141.414 Y  71.414 I   1.414 J   1.414
G2 X 138.586 Y  68.586 I  -1.414 J  -1.414
G1 Z  -1.000
G2 X 141.414 Y  71.414 I   1.414 J   1.414
G2 X 138.586 Y  68.586 I  -1.414 J  -1.414
G1 Z  -1.500
G2 X 141.414 Y  71.414 I   1.414 J   1.414
G2 X 138.586 Y  68.586 I  -1.414 J  -1.414
G1 Z  -2.000
G2 X 141.414 Y  71.414 I   1.414 J   1.414
G2 X 138.586 Y  68.586 I  -1.414 J  -1.414
G1 Z  -2.500
G2 X 141.414 Y  71.414 I   1.414 J   1.414
G2 X 138.586 Y  68.586 I  -1.414 J  -1.414
G1 Z  -3.000
G2 X 141.414 Y  71.414 I   1.414 J   1.414
G2 X 138.586 Y  68.586 I  -1.414 J  -1.414
G1 Z  -3.500
G2 X 141.414 Y  71.414 I   1.414 J   1.414
G2 X 138.586 Y  68.586 I  -1.414 J  -1.414
G1 Z   3.000
G0 Z   7.000 
M9 M5

(* SHAPE Nr: 32 *)
G0 X 138.586 Y  28.586
M3 M8
G0 Z   3.000 
G1 Z  -0.500
G2 X 141.414 Y  31.414 I   1.414 J   1.414
G2 X 138.586 Y  28.586 I  -1.414 J  -1.414
G1 Z  -1.000
G2 X 141.414 Y  31.414 I   1.414 J   1.414
G2 X 138.586 Y  28.586 I  -1.414 J  -1.414
G1 Z  -1.500
G2 X 141.414 Y  31.414 I   1.414 J   1.414
G2 X 138.586 Y  28.586 I  -1.414 J  -1.414
G1 Z  -2.000
G2 X 141.414 Y  31.414 I   1.414 J   1.414
G2 X 138.586 Y  28.586 I  -1.414 J  -1.414
G1 Z  -2.500
G2 X 141.414 Y  31.414 I   1.414 J   1.414
G2 X 138.586 Y  28.586 I  -1.414 J  -1.414
G1 Z  -3.000
G2 X 141.414 Y  31.414 I   1.414 J   1.414
G2 X 138.586 Y  28.586 I  -1.414 J  -1.414
G1 Z  -3.500
G2 X 141.414 Y  31.414 I   1.414 J   1.414
G2 X 138.586 Y  28.586 I  -1.414 J  -1.414
G1 Z   3.000
G0 Z   7.000 
M9 M5

(* SHAPE Nr: 33 *)
G0 X   8.586 Y  28.586
M3 M8
G0 Z   3.000 
G1 Z  -0.500
G2 X  11.414 Y  31.414 I   1.414 J   1.414
G2 X   8.586 Y  28.586 I  -1.414 J  -1.414
G1 Z  -1.000
G2 X  11.414 Y  31.414 I   1.414 J   1.414
G2 X   8.586 Y  28.586 I  -1.414 J  -1.414
G1 Z  -1.500
G2 X  11.414 Y  31.414 I   1.414 J   1.414
G2 X   8.586 Y  28.586 I  -1.414 J  -1.414
G1 Z  -2.000
G2 X  11.414 Y  31.414 I   1.414 J   1.414
G2 X   8.586 Y  28.586 I  -1.414 J  -1.414
G1 Z  -2.500
G2 X  11.414 Y  31.414 I   1.414 J   1.414
G2 X   8.586 Y  28.586 I  -1.414 J  -1.414
G1 Z  -3.000
G2 X  11.414 Y  31.414 I   1.414 J   1.414
G2 X   8.586 Y  28.586 I  -1.414 J  -1.414
G1 Z  -3.500
G2 X  11.414 Y  31.414 I   1.414 J   1.414
G2 X   8.586 Y  28.586 I  -1.414 J  -1.414
G1 Z   3.000
G0 Z   7.000 
M9 M5

(* SHAPE Nr: 34 *)
G0 X  48.586 Y   8.586
M3 M8
G0 Z   3.000 
G1 Z  -0.500
G2 X  51.414 Y  11.414 I   1.414 J   1.414
G2 X  48.586 Y   8.586 I  -1.414 J  -1.414
G1 Z  -1.000
G2 X  51.414 Y  11.414 I   1.414 J   1.414
G2 X  48.586 Y   8.586 I  -1.414 J  -1.414
G1 Z  -1.500
G2 X  51.414 Y  11.414 I   1.414 J   1.414
G2 X  48.586 Y   8.586 I  -1.414 J  -1.414
G1 Z  -2.000
G2 X  51.414 Y  11.414 I   1.414 J   1.414
G2 X  48.586 Y   8.586 I  -1.414 J  -1.414
G1 Z  -2.500
G2 X  51.414 Y  11.414 I   1.414 J   1.414
G2 X  48.586 Y   8.586 I  -1.414 J  -1.414
G1 Z  -3.000
G2 X  51.414 Y  11.414 I   1.414 J   1.414
G2 X  48.586 Y   8.586 I  -1.414 J  -1.414
G1 Z  -3.500
G2 X  51.414 Y  11.414 I   1.414 J   1.414
G2 X  48.586 Y   8.586 I  -1.414 J  -1.414
G1 Z   3.000
G0 Z   7.000 
M9 M5

(* SHAPE Nr: 35 *)
G0 X  98.586 Y   8.586
M3 M8
G0 Z   3.000 
G1 Z  -0.500
G2 X 101.414 Y  11.414 I   1.414 J   1.414
G2 X  98.586 Y   8.586 I  -1.414 J  -1.414
G1 Z  -1.000
G2 X 101.414 Y  11.414 I   1.414 J   1.414
G2 X  98.586 Y   8.586 I  -1.414 J  -1.414
G1 Z  -1.500
G2 X 101.414 Y  11.414 I   1.414 J   1.414
G2 X  98.586 Y   8.586 I  -1.414 J  -1.414
G1 Z  -2.000
G2 X 101.414 Y  11.414 I   1.414 J   1.414
G2 X  98.586 Y   8.586 I  -1.414 J  -1.414
G1 Z  -2.500
G2 X 101.414 Y  11.414 I   1.414 J   1.414
G2 X  98.586 Y   8.586 I  -1.414 J  -1.414
G1 Z  -3.000
G2 X 101.414 Y  11.414 I   1.414 J   1.414
G2 X  98.586 Y   8.586 I  -1.414 J  -1.414
G1 Z  -3.500
G2 X 101.414 Y  11.414 I   1.414 J   1.414
G2 X  98.586 Y   8.586 I  -1.414 J  -1.414
G1 Z   3.000
G0 Z   7.000 
M9 M5

(* SHAPE Nr: 36 *)
G0 X  98.586 Y  88.586
M3 M8
G0 Z   3.000 
G1 Z  -0.500
G2 X 101.414 Y  91.414 I   1.414 J   1.414
G2 X  98.586 Y  88.586 I  -1.414 J  -1.414
G1 Z  -1.000
G2 X 101.414 Y  91.414 I   1.414 J   1.414
G2 X  98.586 Y  88.586 I  -1.414 J  -1.414
G1 Z  -1.500
G2 X 101.414 Y  91.414 I   1.414 J   1.414
G2 X  98.586 Y  88.586 I  -1.414 J  -1.414
G1 Z  -2.000
G2 X 101.414 Y  91.414 I   1.414 J   1.414
G2 X  98.586 Y  88.586 I  -1.414 J  -1.414
G1 Z  -2.500
G2 X 101.414 Y  91.414 I   1.414 J   1.414
G2 X  98.586 Y  88.586 I  -1.414 J  -1.414
G1 Z  -3.000
G2 X 101.414 Y  91.414 I   1.414 J   1.414
G2 X  98.586 Y  88.586 I  -1.414 J  -1.414
G1 Z  -3.500
G2 X 101.414 Y  91.414 I   1.414 J   1.414
G2 X  98.586 Y  88.586 I  -1.414 J  -1.414
G1 Z   3.000
G0 Z   7.000 
M9 M5

(* SHAPE Nr: 37 *)
G0 X  48.586 Y  88.586
M3 M8
G0 Z   3.000 
G1 Z  -0.500
G2 X  51.414 Y  91.414 I   1.414 J   1.414
G2 X  48.586 Y  88.586 I  -1.414 J  -1.414
G1 Z  -1.000
G2 X  51.414 Y  91.414 I   1.414 J   1.414
G2 X  48.586 Y  88.586 I  -1.414 J  -1.414
G1 Z  -1.500
G2 X  51.414 Y  91.414 I   1.414 J   1.414
G2 X  48.586 Y  88.586 I  -1.414 J  -1.414
G1 Z  -2.000
G2 X  51.414 Y  91.414 I   1.414 J   1.414
G2 X  48.586 Y  88.586 I  -1.414 J  -1.414
G1 Z  -2.500
G2 X  51.414 Y  91.414 I   1.414 J   1.414
G2 X  48.586 Y  88.586 I  -1.414 J  -1.414
G1 Z  -3.000
G2 X  51.414 Y  91.414 I   1.414 J   1.414
G2 X  48.586 Y  88.586 I  -1.414 J  -1.414
G1 Z  -3.500
G2 X  51.414 Y  91.414 I   1.414 J   1.414
G2 X  48.586 Y  88.586 I  -1.414 J  -1.414
G1 Z   3.000
G0 Z   7.000 
M9 M5
G0 X   0.000 Y   0.000
M2 (Program end)