(Generated with: DXF2GCODE, Version: Py2.7.12+ PyQt4.11.4, Date: $Date: Sun Apr 17 16:32:22 2016 +0200 $)
(Created from file: /home/nico/Projects/Electronics/LimitSwitchesPlugin/CAM/holding_holes.dxf)
(Time: Thu Jul  6 20:49:28 2017)
(G21 Units in millimeters)  (G90 Absolute programming) 
G21 (Units in millimeters)
G90 (Absolute programming)
G64 (Default cutting)
G17 (XY plane)
G40 (Cancel radius comp.)
G49 (Cancel length comp.)

G0 Z   7.000 

(*** LAYER: HoldingHoles ***)
T2 M6
S1000

(* SHAPE Nr: 40 *)
G0 X  29.293 Y  69.293
M3 M8
G0 Z   3.000 
F100
G1 Z  -0.400
G2 X  30.707 Y  70.707 I   0.707 J   0.707
G2 X  29.293 Y  69.293 I  -0.707 J  -0.707
G1 Z  -0.800
G2 X  30.707 Y  70.707 I   0.707 J   0.707
G2 X  29.293 Y  69.293 I  -0.707 J  -0.707
G1 Z  -1.200
G2 X  30.707 Y  70.707 I   0.707 J   0.707
G2 X  29.293 Y  69.293 I  -0.707 J  -0.707
G1 Z  -1.600
G2 X  30.707 Y  70.707 I   0.707 J   0.707
G2 X  29.293 Y  69.293 I  -0.707 J  -0.707
G1 Z  -2.000
G2 X  30.707 Y  70.707 I   0.707 J   0.707
G2 X  29.293 Y  69.293 I  -0.707 J  -0.707
G1 Z   3.000
G0 Z   7.000 
M9 M5

(* SHAPE Nr: 41 *)
G0 X  29.293 Y  29.293
M3 M8
G0 Z   3.000 
G1 Z  -0.400
G2 X  30.707 Y  30.707 I   0.707 J   0.707
G2 X  29.293 Y  29.293 I  -0.707 J  -0.707
G1 Z  -0.800
G2 X  30.707 Y  30.707 I   0.707 J   0.707
G2 X  29.293 Y  29.293 I  -0.707 J  -0.707
G1 Z  -1.200
G2 X  30.707 Y  30.707 I   0.707 J   0.707
G2 X  29.293 Y  29.293 I  -0.707 J  -0.707
G1 Z  -1.600
G2 X  30.707 Y  30.707 I   0.707 J   0.707
G2 X  29.293 Y  29.293 I  -0.707 J  -0.707
G1 Z  -2.000
G2 X  30.707 Y  30.707 I   0.707 J   0.707
G2 X  29.293 Y  29.293 I  -0.707 J  -0.707
G1 Z   3.000
G0 Z   7.000 
M9 M5

(* SHAPE Nr: 42 *)
G0 X 119.293 Y  69.293
M3 M8
G0 Z   3.000 
G1 Z  -0.400
G2 X 120.707 Y  70.707 I   0.707 J   0.707
G2 X 119.293 Y  69.293 I  -0.707 J  -0.707
G1 Z  -0.800
G2 X 120.707 Y  70.707 I   0.707 J   0.707
G2 X 119.293 Y  69.293 I  -0.707 J  -0.707
G1 Z  -1.200
G2 X 120.707 Y  70.707 I   0.707 J   0.707
G2 X 119.293 Y  69.293 I  -0.707 J  -0.707
G1 Z  -1.600
G2 X 120.707 Y  70.707 I   0.707 J   0.707
G2 X 119.293 Y  69.293 I  -0.707 J  -0.707
G1 Z  -2.000
G2 X 120.707 Y  70.707 I   0.707 J   0.707
G2 X 119.293 Y  69.293 I  -0.707 J  -0.707
G1 Z   3.000
G0 Z   7.000 
M9 M5

(* SHAPE Nr: 43 *)
G0 X 119.293 Y  29.293
M3 M8
G0 Z   3.000 
G1 Z  -0.400
G2 X 120.707 Y  30.707 I   0.707 J   0.707
G2 X 119.293 Y  29.293 I  -0.707 J  -0.707
G1 Z  -0.800
G2 X 120.707 Y  30.707 I   0.707 J   0.707
G2 X 119.293 Y  29.293 I  -0.707 J  -0.707
G1 Z  -1.200
G2 X 120.707 Y  30.707 I   0.707 J   0.707
G2 X 119.293 Y  29.293 I  -0.707 J  -0.707
G1 Z  -1.600
G2 X 120.707 Y  30.707 I   0.707 J   0.707
G2 X 119.293 Y  29.293 I  -0.707 J  -0.707
G1 Z  -2.000
G2 X 120.707 Y  30.707 I   0.707 J   0.707
G2 X 119.293 Y  29.293 I  -0.707 J  -0.707
G1 Z   3.000
G0 Z   7.000 
M9 M5
G0 X   0.000 Y   0.000
M2 (Program end)